Other-Icons/16x16-el_light/places/folder-music.svg

<?xml version="1.0" encoding="UTF-8" standalone="no"?>
<svg
   xmlns:dc="http://purl.org/dc/elements/1.1/"
   xmlns:cc="http://creativecommons.org/ns#"
   xmlns:rdf="http://www.w3.org/1999/02/22-rdf-syntax-ns#"
   xmlns:svg="http://www.w3.org/2000/svg"
   xmlns="http://www.w3.org/2000/svg"
   xmlns:xlink="http://www.w3.org/1999/xlink"
   xmlns:sodipodi="http://sodipodi.sourceforge.net/DTD/sodipodi-0.dtd"
   xmlns:inkscape="http://www.inkscape.org/namespaces/inkscape"
   viewBox="0 0 16 16"
   version="1.1"
   id="svg6"
   sodipodi:docname="folder-music.svg"
   inkscape:version="0.92.4 5da689c313, 2019-01-14">
  <metadata
     id="metadata10">
    <rdf:RDF>
      <cc:Work
         rdf:about="">
        <dc:format>image/svg+xml</dc:format>
        <dc:type
           rdf:resource="http://purl.org/dc/dcmitype/StillImage" />
      </cc:Work>
    </rdf:RDF>
  </metadata>
  <sodipodi:namedview
     pagecolor="#ffffff"
     bordercolor="#666666"
     borderopacity="1"
     objecttolerance="10"
     gridtolerance="10"
     guidetolerance="10"
     inkscape:pageopacity="0"
     inkscape:pageshadow="2"
     inkscape:window-width="1920"
     inkscape:window-height="1022"
     id="namedview8"
     showgrid="false"
     inkscape:zoom="39.401154"
     inkscape:cx="8.221898"
     inkscape:cy="8"
     inkscape:window-x="0"
     inkscape:window-y="26"
     inkscape:window-maximized="1"
     inkscape:current-layer="svg6" />
  <defs
     id="defs3051">
    <linearGradient
       inkscape:collect="always"
       id="linearGradient821">
      <stop
         style="stop-color:#6e6e6e;stop-opacity:1"
         offset="0"
         id="stop817" />
      <stop
         style="stop-color:#6e6e6e;stop-opacity:1"
         offset="1"
         id="stop819" />
    </linearGradient>
    <style
       type="text/css"
       id="current-color-scheme">
      .ColorScheme-Text {
        color:#4d4d4d;
      }
      </style>
    <linearGradient
       inkscape:collect="always"
       xlink:href="#linearGradient821"
       id="linearGradient823"
       x1="2"
       y1="8"
       x2="14"
       y2="8"
       gradientUnits="userSpaceOnUse" />
  </defs>
  <path
     style="fill:url(#linearGradient823);fill-opacity:1;stroke:none"
     d="M 5 2 L 5 4 L 5 10.275391 C 4.705 10.104292 4.3669285 10 4 10 C 2.8920048 10 2 10.892005 2 12 C 2 13.107995 2.8920048 14 4 14 C 5.1079952 14 6 13.107995 6 12 L 6 6 L 13 6 L 13 8.2753906 C 12.705 8.1042919 12.366929 8 12 8 C 10.892005 8 10 8.8920048 10 10 C 10 11.107995 10.892005 12 12 12 C 13.107995 12 14 11.107995 14 10 L 14 2 L 5 2 z M 6 4 L 13 4 L 13 5 L 6 5 L 6 4 z "
     class="ColorScheme-Text"
     id="path4" />
</svg>

<svg xmlns="http://www.w3.org/2000/svg" xmlns:xlink="http://www.w3.org/1999/xlink" viewBox="0 0 16 16"><defs><linearGradient id="a"><stop offset="0" stop-color="#6e6e6e"/><stop offset="1" stop-color="#6e6e6e"/></linearGradient><linearGradient xlink:href="#a" id="b" x1="2" y1="8" x2="14" y2="8" gradientUnits="userSpaceOnUse"/></defs><path d="M5 2v8.275A1.982 1.982 0 0 0 4 10c-1.108 0-2 .892-2 2s.892 2 2 2 2-.892 2-2V6h7v2.275A1.982 1.982 0 0 0 12 8c-1.108 0-2 .892-2 2s.892 2 2 2 2-.892 2-2V2H5zm1 2h7v1H6V4z" fill="url(#b)" color="#4d4d4d"/></svg>
